X:1
T:Vals
T:efter Alfred Petersson, Nttraby, Blekinge (SvL, Band 18, nr 296)
O:Nttraby, Blekinge
S:Svenska Ltar
N:Svenska Ltar, Band 18 nr 296
R:Vals
C:Alfred Petersson
M:3/4
L:1/8
Q:1/4=80
Z:Konverterad till abc-format av  Olle Paulsson 05-01-03
K:F
uAB|(c2a2) g2|(f2e2)d2|(d2c2) fc|A4 cd|(d2B2) dB|
G3 A Bc|(d2c2) dc|(c2a2) g2|(f2e2) d2|(d2c2) fc|
A4 cf|a4 ce|g4 ce|f2 (fe) fg|f4:|
|:(fa)|ge ce gb|af ef af|ge ce gb|
af cf af|c2 ag fe|d2 (ba) gf|(fe) gc de|f4:|
